X:1
T:Shout the Tidings
T:Shout the Tidings
T:D. M. Chute
T:D. M. Chute, 1893
T:Public Domain Courtesy of the Cyber Hymnal™
C:D. M. Chute
Z:Public Domain
Z:Courtesy of the Cyber Hymnal™
%%score ( 1 2 ) ( 3 4 )
L:1/8
Q:1/4=107
M:4/4
K:Bb
V:1 treble 
V:2 treble 
V:3 bass 
V:4 bass 
V:1
 [B,D]>[CE] | [DF]2 [DF]2 [DF]2 [DF]2 | [EG]2 [DF]4 [B,D]>[CE] | [DF]2 [DF]2 [FB]2 [Fc]2 | %4
w: 1.~Shout the|tid- ings of sal-|va- tion, Bear the|mes- sage far and|
w: 2.~Shout the|tid- ings of sal-|va- tion, Sit not|id- ly by the|
w: 3.~Shout the|tid- ings of sal-|va- tion, Spread the|word from shore to|
 [Fd]6 [Fd]>[Fd] | [Fc]2 [Fc]2 [Fd]2 [Fe]2 | [Fd]2 [DB]4 [FB]>[FB] | [FA]2 [Ac]2 [GB]2 [=EG]2 | %8
w: wide; Spread the|feast for ev- ery|na- tion: Tell of|Je- sus cru- ci-|
w: way; Heed the|mes- sage of the|Mas- ter: “Go and|work for Me to-|
w: shore! Je- sus’|mer- cy is un-|mea- sured, And His|love a bound- less|
 F6 ||"^Refrain" [B,D]>[CE] | [DF]2 [DF]4 [DF]2 | [EG]2 [DF]4 [FB]>[Fc] | [Fd]2 [Fd]4 [FB]2 | %13
w: fied!|||||
w: day.”|Hal- le-|lu- jah for|Je- sus! Shout the|tid- ings a-|
w: store!|||||
 [Fc]6 [Fd]>[Ec] | [DB]2 [DB]4 F2 | [EG]2 [GB]4 [GB]>[_Gc] | [Fd]2 [Fd]4 [Ec]2 | [DB]6 |] %18
w: |||||
w: gain! Hal- le-|lu- jah for|Je- sus, Now and|ev- er! A-|men.|
w: |||||
V:2
 x2 | x8 | x8 | x8 | x8 | x8 | x8 | x8 | F6 || x2 | x8 | x8 | x8 | x8 | x6 F2 | x8 | x8 | x6 |] %18
V:3
 [B,,F,]>[B,,F,] | [B,,B,]2 [B,,B,]2 [B,,B,]2 [B,,B,]2 | [B,,B,]2 [B,,B,]4 [B,,F,]>[B,,F,] | %3
 [B,,B,]2 [B,,B,]2 [D,B,]2 [F,A,]2 | B,6 B,>B, | [F,A,]2 [F,A,]2 [F,B,]2 [F,C]2 | %6
 [B,,B,]2 [B,,B,]4 [B,,D]>[B,,D] | [C,C]2 [C,C]2 [C,C]2 [C,B,]2 | [F,A,]6 || [B,,F,]>[B,,F,] | %10
 [B,,B,]2 [B,,B,]4 [B,,B,]2 | [B,,B,]2 [B,,B,]4 [D,B,]>[F,A,] | B,2 B,4 [D,B,]2 | %13
 [F,A,]6 [F,A,]>[^F,A,] | [G,B,]2 [G,B,]4 [D,B,]2 | [E,B,]2 [E,B,]4 [E,B,]>[E,B,] | %16
 [F,B,]2 [F,B,]4 [F,A,]2 | [B,,B,]6 |] %18
V:4
 x2 | x8 | x8 | x8 | B,6 B,>B, | x8 | x8 | x8 | x6 || x2 | x8 | x8 | B,2 B,4 x2 | x8 | x8 | x8 | %16
 x8 | x6 |] %18

